icon-themes/sifr_svg/cmd/sc_snapframe.svg

<svg viewBox="0 0 16 16" xmlns="http://www.w3.org/2000/svg"><path d="m6 1v2h2v-2zm3 0v2h3c1.1 0 2 .9 2 2s-.9 2-2 2h-3v2h3c2.2 0 4-1.8 4-4s-1.8-4-4-4zm-8 4c-.554 0-1 .446-1 1v8c0 .554.446 1 1 1h14c.554 0 1-.446 1-1v-5h-2v4h-12v-6h2v-2zm5 2v2h2v-2z" fill="#555753"/></svg>

<svg xmlns="http://www.w3.org/2000/svg" viewBox="0 0 16 16">
  <path
     style="fill:#555753"
     d="M 6 1 L 6 3 L 8 3 L 8 1 L 6 1 z M 9 1 L 9 3 L 12 3 C 13.1 3 14 3.9 14 5 C 14 6.1 13.1 7 12 7 L 9 7 L 9 9 L 12 9 C 14.2 9 16 7.2 16 5 C 16 2.8 14.2 1 12 1 L 9 1 z M 1 5 C 0.446 5 0 5.446 0 6 L 0 14 C 0 14.554 0.446 15 1 15 L 15 15 C 15.554 15 16 14.554 16 14 L 16 9 L 14 9 L 14 13 L 2 13 L 2 7 L 4 7 L 4 5 L 1 5 z M 6 7 L 6 9 L 8 9 L 8 7 L 6 7 z "
     />
</svg>
